X: 22
M:6/8
L:1/8
K:D
"Con spirito"(3B/2c/2d/2|e2 e f2 e|d2 B BAF|A2 F E2 E|E3-E2 F/2G/2|
e2 e f2 e|d2 B BAF|A2 F E2 E|E3-E2||

